cssgg/smile-none.svg

<svg
  width="24"
  height="24"
  viewBox="0 0 24 24"
  fill="none"
  xmlns="http://www.w3.org/2000/svg"
>
  <path
    d="M8 9C7.44772 9 7 9.44772 7 10C7 10.5523 7.44772 11 8 11H9C9.55228 11 10 10.5523 10 10C10 9.44772 9.55228 9 9 9H8Z"
    fill="currentColor"
  />
  <path
    d="M15 9C14.4477 9 14 9.44772 14 10C14 10.5523 14.4477 11 15 11H16C16.5523 11 17 10.5523 17 10C17 9.44772 16.5523 9 16 9H15Z"
    fill="currentColor"
  />
  <path
    d="M9 15C8.44772 15 8 15.4477 8 16C8 16.5523 8.44772 17 9 17H15C15.5523 17 16 16.5523 16 16C16 15.4477 15.5523 15 15 15H9Z"
    fill="currentColor"
  />
  <path
    fill-rule="evenodd"
    clip-rule="evenodd"
    d="M12 22C17.5228 22 22 17.5228 22 12C22 6.47715 17.5228 2 12 2C6.47715 2 2 6.47715 2 12C2 17.5228 6.47715 22 12 22ZM12 20C16.4183 20 20 16.4183 20 12C20 7.58172 16.4183 4 12 4C7.58172 4 4 7.58172 4 12C4 16.4183 7.58172 20 12 20Z"
    fill="currentColor"
  />
</svg>

<svg viewBox="0 0 24 24" xmlns="http://www.w3.org/2000/svg"><g><path d="M8 9c-.56 0-1 .44-1 1 0 .55.44 1 1 1h1c.55 0 1-.45 1-1 0-.56-.45-1-1-1H8Z"/><path d="M15 9c-.56 0-1 .44-1 1 0 .55.44 1 1 1h1c.55 0 1-.45 1-1 0-.56-.45-1-1-1h-1Z"/><path d="M9 15c-.56 0-1 .44-1 1 0 .55.44 1 1 1h6c.55 0 1-.45 1-1 0-.56-.45-1-1-1H9Z"/><path fill-rule="evenodd" d="M12 22c5.52 0 10-4.48 10-10 0-5.53-4.48-10-10-10C6.47 2 2 6.47 2 12c0 5.52 4.47 10 10 10Zm0-2c4.41 0 8-3.59 8-8 0-4.42-3.59-8-8-8 -4.42 0-8 3.58-8 8 0 4.41 3.58 8 8 8Z"/></g></svg>
